X:233
T:Micho Russell's
T:Sister's Reel, The
T:Mary McMahon
R:reel
Z:id:hn-reel-233
M:C|
K:D
fdec d2AG|FGAB =cAGc|Adde fded|(3B^cd ef g2ag|
fdec d2AG|FGAB =cAGc|Adde fde^c|1 Add^c d2ag:|2 Add^c d2de||
|:fd (3efg afga|bgag fdde|~f3g afga|bgaf ~g3e|
fefg afga|bgag fdda|bgaf gfed|1 ^cdef ~g3e:|2 (3B^cd ef g2ag||
